imagens/header-perfil.svg

<svg xmlns="http://www.w3.org/2000/svg" xmlns:xlink="http://www.w3.org/1999/xlink" width="500" zoomAndPan="magnify" viewBox="0 0 375 374.999991" height="500" preserveAspectRatio="xMidYMid meet" version="1.0"><defs><clipPath id="2423b574ed"><path d="M 131.25 131.25 L 243.75 131.25 L 243.75 243.75 L 131.25 243.75 Z M 131.25 131.25 " clip-rule="nonzero"/></clipPath></defs><g clip-path="url(#2423b574ed)"><path fill="#ffffff" d="M 131.25 131.25 L 243.75 131.25 L 243.75 243.75 L 131.25 243.75 Z M 131.25 131.25 " fill-opacity="1" fill-rule="nonzero"/></g><path fill="#f9943b" d="M 320.078125 54.917969 C 284.664062 19.503906 237.578125 0 187.496094 0 C 137.414062 0 90.332031 19.503906 54.917969 54.917969 C 19.503906 90.328125 0 137.414062 0 187.496094 C 0 237.578125 19.503906 284.664062 54.917969 320.078125 C 90.332031 355.492188 137.414062 374.992188 187.496094 374.992188 C 237.578125 374.992188 284.664062 355.492188 320.078125 320.078125 C 355.492188 284.664062 374.992188 237.578125 374.992188 187.496094 C 374.992188 137.414062 355.492188 90.328125 320.078125 54.917969 Z M 63.425781 63.425781 C 96.566406 30.285156 140.628906 12.03125 187.496094 12.03125 C 234.367188 12.03125 278.429688 30.285156 311.570312 63.425781 C 344.710938 96.566406 362.960938 140.628906 362.960938 187.496094 C 362.960938 226.457031 350.335938 263.476562 327.042969 293.894531 C 308.503906 267.976562 278.902344 252.660156 246.753906 252.660156 L 128.238281 252.660156 C 96.089844 252.660156 66.488281 267.976562 47.949219 293.894531 C 24.65625 263.472656 12.03125 226.457031 12.03125 187.496094 C 12.03125 140.628906 30.285156 96.566406 63.425781 63.425781 Z M 187.496094 242.777344 C 235.671875 242.777344 274.863281 203.585938 274.863281 155.410156 C 274.863281 107.238281 235.671875 68.046875 187.496094 68.046875 C 139.324219 68.046875 100.132812 107.238281 100.132812 155.410156 C 100.132812 203.585938 139.324219 242.777344 187.496094 242.777344 Z M 187.496094 242.777344 " fill-opacity="1" fill-rule="nonzero"/></svg>

<svg xmlns="http://www.w3.org/2000/svg" width="500" height="500" version="1.0" viewBox="0 0 375 375"><defs><clipPath id="a"><path d="M131.25 131.25h112.5v112.5h-112.5Zm0 0"/></clipPath></defs><g clip-path="url(#a)"><path fill="#fff" d="M131.25 131.25h112.5v112.5h-112.5Zm0 0"/></g><path fill="#f9943b" d="M320.078 54.918C284.664 19.504 237.578 0 187.496 0 137.414 0 90.332 19.504 54.918 54.918 19.504 90.328 0 137.414 0 187.496c0 50.082 19.504 97.168 54.918 132.582 35.414 35.414 82.496 54.914 132.578 54.914 50.082 0 97.168-19.5 132.582-54.914 35.414-35.414 54.914-82.5 54.914-132.582 0-50.082-19.5-97.168-54.914-132.578ZM63.426 63.426c33.14-33.14 77.203-51.395 124.07-51.395 46.871 0 90.934 18.254 124.074 51.395 33.14 33.14 51.39 77.203 51.39 124.07 0 38.961-12.624 75.98-35.917 106.399-18.54-25.918-48.14-41.235-80.29-41.235H128.239c-32.148 0-61.75 15.317-80.289 41.235-23.293-30.422-35.918-67.438-35.918-106.399 0-46.867 18.254-90.93 51.395-124.07Zm124.07 179.351c48.176 0 87.367-39.191 87.367-87.367 0-48.172-39.191-87.363-87.367-87.363-48.172 0-87.363 39.191-87.363 87.363 0 48.176 39.191 87.367 87.363 87.367Zm0 0"/></svg>
